svg/u1f68c.svg

<svg viewBox="0 0 128 128" xmlns="http://www.w3.org/2000/svg" xmlns:xlink="http://www.w3.org/1999/xlink">
  <linearGradient id="c" gradientUnits="userSpaceOnUse" x1="64" x2="64" y1="51.167" y2="114.17">
    <stop offset=".1157" stop-color="#eee"/>
    <stop offset=".3646" stop-color="#EAEAEA"/>
    <stop offset=".6222" stop-color="#ddd"/>
    <stop offset=".883" stop-color="#C9C9C9"/>
    <stop offset="1" stop-color="#BDBDBD"/>
  </linearGradient>
  <path d="m118 115.75h-108c-3.3 0-6-2.7-6-6v-55.75c0-3.3 2.7-6 6-6h108c3.3 0 6 2.7 6 6v55.75c0 3.3-2.7 6-6 6z" fill="url(#c)"/>
  <rect fill="#66BB6A" height="7.75" width="101.21" x="22.86" y="88.25"/>
  <defs>
    <path id="b" d="m118 115.75h-108c-3.3 0-6-2.7-6-6v-55.75c0-3.3 2.7-6 6-6h108c3.3 0 6 2.7 6 6v55.75c0 3.3-2.7 6-6 6z"/>
  </defs>
  <clipPath id="a">
    <use xlink:href="#b"/>
  </clipPath>
  <path clip-path="url(#a)" d="m12 92.13h-22.67v-35.92h22.67c2.2 0 4 1.8 4 4v27.92c0 2.2-1.8 4-4 4z" fill="#4FC3F7"/>
  <g clip-path="url(#a)" opacity=".2">
    <path d="m12 58.21c1.1 0 2 0.9 2 2v27.92c0 1.1-0.9 2-2 2h-20.67v-31.92h20.67m0-2h-22.67v35.92h22.67c2.2 0 4-1.8 4-4v-27.92c0-2.2-1.8-4-4-4z" fill="#424242"/>
  </g>
  <path d="m53.17 83.5h-26.34c-2.2 0-4-1.8-4-4v-19.29c0-2.2 1.8-4 4-4h26.33c2.2 0 4 1.8 4 4v19.29c0.01 2.2-1.79 4-3.99 4z" fill="#4FC3F7"/>
  <path d="m112 83.5h-44c-2.2 0-4-1.8-4-4v-19.29c0-2.2 1.8-4 4-4h44c2.21 0 4 1.79 4 4v19.29c0 2.21-1.79 4-4 4z" fill="#4FC3F7"/>
  <path d="m6.84 105.62h-0.59c-1.24 0-2.25-1.01-2.25-2.25v-7c0-1.24 1.01-2.25 2.25-2.25h0.59c1.24 0 2.25 1.01 2.25 2.25v7c0 1.24-1.01 2.25-2.25 2.25z" fill="#FFEE58"/>
  <g opacity=".2">
    <path d="m118 51c1.65 0 3 1.35 3 3v55.75c0 1.65-1.35 3-3 3h-108c-1.65 0-3-1.35-3-3v-55.75c0-1.65 1.35-3 3-3h108m0-3h-108c-3.3 0-6 2.7-6 6v55.75c0 3.3 2.7 6 6 6h108c3.3 0 6-2.7 6-6v-55.75c0-3.3-2.7-6-6-6z" fill="#424242"/>
  </g>
  <circle cx="28" cy="112" fill="#4E342E" r="12"/>
  <g opacity=".2">
    <path d="m28 102c5.51 0 10 4.49 10 10s-4.49 10-10 10-10-4.49-10-10 4.49-10 10-10m0-2c-6.63 0-12 5.37-12 12s5.37 12 12 12 12-5.37 12-12-5.37-12-12-12z" fill="#eee"/>
  </g>
  <circle cx="28" cy="112" fill="#BDBDBD" r="5.14"/>
  <circle cx="102" cy="112" fill="#4E342E" r="12"/>
  <g opacity=".2">
    <path d="m102 102c5.51 0 10 4.49 10 10s-4.49 10-10 10-10-4.49-10-10 4.49-10 10-10m0-2c-6.63 0-12 5.37-12 12s5.37 12 12 12 12-5.37 12-12-5.37-12-12-12z" fill="#eee"/>
  </g>
  <circle cx="102" cy="112" fill="#BDBDBD" r="5.14"/>
  <g opacity=".2">
    <path d="m53.17 58.21c1.1 0 2 0.9 2 2v19.29c0 1.1-0.9 2-2 2h-26.34c-1.1 0-2-0.9-2-2v-19.29c0-1.1 0.9-2 2-2h26.34m0-2h-26.34c-2.2 0-4 1.8-4 4v19.29c0 2.2 1.8 4 4 4h26.33c2.2 0 4-1.8 4-4v-19.29c0.01-2.2-1.79-4-3.99-4z" fill="#424242"/>
  </g>
  <g opacity=".2">
    <path d="m112 58.21c1.1 0 2 0.9 2 2v19.29c0 1.1-0.9 2-2 2h-44c-1.1 0-2-0.9-2-2v-19.29c0-1.1 0.9-2 2-2h44m0-2h-44c-2.2 0-4 1.8-4 4v19.29c0 2.2 1.8 4 4 4h44c2.21 0 4-1.79 4-4v-19.29c0-2.21-1.79-4-4-4z" fill="#424242"/>
  </g>
</svg>

<svg style="enable-background:new 0 0 128 128;" viewBox="0 0 128 128" xmlns="http://www.w3.org/2000/svg" xmlns:xlink="http://www.w3.org/1999/xlink">
  <linearGradient id="SVGID_1_" gradientTransform="matrix(1 0 0 1 0 -713.8898)" gradientUnits="userSpaceOnUse" x1="64" x2="64" y1="765.0568" y2="828.0598">
    <stop offset="0.1157" style="stop-color:#EEEEEE"/>
    <stop offset="0.3646" style="stop-color:#EAEAEA"/>
    <stop offset="0.6222" style="stop-color:#DDDDDD"/>
    <stop offset="0.883" style="stop-color:#C9C9C9"/>
    <stop offset="1" style="stop-color:#BDBDBD"/>
  </linearGradient>
  <path d="M118,115.8H10c-3.3,0-6-2.7-6-6V54c0-3.3,2.7-6,6-6h108c3.3,0,6,2.7,6,6v55.8 C124,113.1,121.3,115.8,118,115.8z" style="fill:url(#SVGID_1_);"/>
  <rect height="7.8" style="fill:#66BB6A;" width="101.2" x="22.9" y="88.2"/>
  <path d="M16,60.2v27.9c0,2.2-1.8,4-4,4H4V56.2h8C14.2,56.2,16,58,16,60.2z" style="fill:#4FC3F7;"/>
  <g>
    <defs>
      <path id="SVGID_2_" d="M118,115.8H10c-3.3,0-6-2.7-6-6V54c0-3.3,2.7-6,6-6h108c3.3,0,6,2.7,6,6v55.8 C124,113.1,121.3,115.8,118,115.8z"/>
    </defs>
    <clipPath id="SVGID_3_">
      <use style="overflow:visible;" xlink:href="#SVGID_2_"/>
    </clipPath>
    <g style="opacity:0.2;clip-path:url(#SVGID_3_);">
      <path d="M12,58.2c1.1,0,2,0.9,2,2v27.9c0,1.1-0.9,2-2,2H-8.7V58.2H12 M12,56.2h-22.7v35.9H12 c2.2,0,4-1.8,4-4V60.2C16,58,14.2,56.2,12,56.2z" style="fill:#424242;"/>
    </g>
  </g>
  <path d="M53.2,83.5H26.8c-2.2,0-4-1.8-4-4V60.2c0-2.2,1.8-4,4-4h26.3c2.2,0,4,1.8,4,4v19.3 C57.2,81.7,55.4,83.5,53.2,83.5z" style="fill:#4FC3F7;"/>
  <path d="M112,83.5H68c-2.2,0-4-1.8-4-4V60.2c0-2.2,1.8-4,4-4h44c2.2,0,4,1.8,4,4v19.3 C116,81.7,114.2,83.5,112,83.5z" style="fill:#4FC3F7;"/>
  <path d="M6.8,105.6H6.2c-1.2,0-2.2-1-2.2-2.2v-7c0-1.2,1-2.2,2.2-2.2h0.6c1.2,0,2.2,1,2.2,2.2v7 C9.1,104.6,8.1,105.6,6.8,105.6z" style="fill:#FFEE58;"/>
  <g style="opacity:0.2;">
    <path d="M118,51c1.7,0,3,1.3,3,3v55.8c0,1.7-1.3,3-3,3H10c-1.6,0-3-1.3-3-3V54c0-1.7,1.4-3,3-3H118 M118,48 H10c-3.3,0-6,2.7-6,6v55.8c0,3.3,2.7,6,6,6h108c3.3,0,6-2.7,6-6V54C124,50.7,121.3,48,118,48z" style="fill:#424242;"/>
  </g>
  <circle cx="28" cy="112" r="12" style="fill:#4E342E;"/>
  <g style="opacity:0.2;">
    <path d="M28,102c5.5,0,10,4.5,10,10s-4.5,10-10,10s-10-4.5-10-10S22.5,102,28,102 M28,100 c-6.6,0-12,5.4-12,12s5.4,12,12,12s12-5.4,12-12S34.6,100,28,100z" style="fill:#EEEEEE;"/>
  </g>
  <circle cx="28" cy="112" r="5.1" style="fill:#BDBDBD;"/>
  <circle cx="102" cy="112" r="12" style="fill:#4E342E;"/>
  <g style="opacity:0.2;">
    <path d="M102,102c5.5,0,10,4.5,10,10s-4.5,10-10,10s-10-4.5-10-10S96.5,102,102,102 M102,100 c-6.6,0-12,5.4-12,12s5.4,12,12,12s12-5.4,12-12S108.6,100,102,100z" style="fill:#EEEEEE;"/>
  </g>
  <circle cx="102" cy="112" r="5.1" style="fill:#BDBDBD;"/>
  <g style="opacity:0.2;">
    <path d="M53.2,58.2c1.1,0,2,0.9,2,2v19.3c0,1.1-0.9,2-2,2H26.8c-1.1,0-2-0.9-2-2V60.2c0-1.1,0.9-2,2-2H53.2 M53.2,56.2H26.8c-2.2,0-4,1.8-4,4v19.3c0,2.2,1.8,4,4,4h26.3c2.2,0,4-1.8,4-4V60.2C57.2,58,55.4,56.2,53.2,56.2z" style="fill:#424242;"/>
  </g>
  <g style="opacity:0.2;">
    <path d="M112,58.2c1.1,0,2,0.9,2,2v19.3c0,1.1-0.9,2-2,2H68c-1.1,0-2-0.9-2-2V60.2c0-1.1,0.9-2,2-2H112 M112,56.2H68c-2.2,0-4,1.8-4,4v19.3c0,2.2,1.8,4,4,4h44c2.2,0,4-1.8,4-4V60.2C116,58,114.2,56.2,112,56.2z" style="fill:#424242;"/>
  </g>
</svg>
